X:15
T:Lady Mary Ramsay
A:Wyresdale, Lancashire
B:A John Winder Book, April 1789
L:1/8
M:C|
N:Nathaniel Gow, I think
O:England
Z:Richard Robinson 
%%TranscriptionNotes:Some guesswork here owing to imperfect legibility
%%TUNEURL: http://www.leeds.ac.uk/music/Info/RRTuneBk/gettune/000005f0.html
%%ID:000005f0
K:D
%%graceslurs 0
(D2D)>B A<(F{B}F)>B | {B}A<FB<G AFA<d | \
(D2D)>B AFFA | (3Bcd (3AGF (E2E)<e |
(D2D)>B A<FF>B | A<FB<G A<FA<d | \
(D2D)>B A<FF>A | (3Bcd (3AGF E2E<g |:
ff e<cc>e | dBB>d A<FF>g | \
ff e<cc>A | (3Bcd (3AGF (E2E<)g |
ff e<cc>e | dBB>d A<FF>A |\
(3def (3edc (3Bcd (3AGF | (3GAB (3AGF E2E<e|]
% page 3
